!! 00010] TT[TB
!! Eigene Aufnahme
!!!OTL: NN The piebald horse
!!!ARE: Neimeng
!! Ethnic Group: Menggu
!! MM, S. 170/ 171
!!!SCT: C0539
!!!YEM: Copyright 1995, estate of Helmut Schaffrath.
**kern
*ICvox
*Ivox
*M2/4
*k[]
*C:
{8a
16g
16e
8g
16a
16cc
=1
2g}
=2
{8a
16g
16e
8g
16e
16cc
=3
2g}
=4
{8g
16g
16a
4cc
=5
16g
16a
8cc
8g
8e}
=6
{16e
16d
8c
8e
8g
=7
2c}
==
!!!AGN: NN
!! Saenger: Chao Lun Batou, der das Buch nur zum Nachschlagen
!!    benutzte und ansonsten auswendig sang. Da er aus dem Osten der
!!    Neimeng kommt, kennt er nicht so viele Lieder des Westens.
!!    Alle Lieder wurden mit erkaelteter, halber Stimme in meinem
!!    Zimmer gesungen. FOTO VORHANDEN (DIAS) 31.3.87
!!    Ein zweites, rhythmisch freies Beispiel unter gleicher Signatur
!!    vorhanden. VARIANTE. Phrasen nach Gesang eingeteilt.
!!!ONB: ESAC (Essen Associative Code) Database: CHINA
!!!AMT: simple duple
!!!AIN: vox
!!!EED: Helmut Schaffrath
!!!EEV: 1.0
*-
